!!!OTL: Ein kleiner feiner Almanach.
!!!OTL-incipit: MAN SAGT DAS LIEBEN BRINGET GROSSE FREUD
!!!ARE: Europa, Mitteleuropa, Deutschland
!!!SCT: Z0235
!!!TXL: @@DE
!!!YEM: Copyright 1995, estate of Helmut Schaffrath.
**kern	**text
*ICvox	*
*M3/8	*
*k[]	*
*C:	*
{8g	Man
=1	=1
4cc	ſagt,
8dd	das
=2	=2
4ee	Lie-
8dd	-ben
=3	=3
4ee	brin-
8dd	-get
=4	=4
4ee	gro-
8dd	-ße
=5	=5
4gg}	Freud,
{8gg	wenn
=6	=6
8.gg	man
16ff	es
8ee	be-
=7	=7
8ff	-trach-
8dd	-tet,
8dd	ſo
=8	=8
8.ee	bringt
16dd	es
8cc	nur
=9	=9
4dd}	Leid;
{8ee	kaum
=10	=10
4dd	hat
8ee	er
=11	=11
4dd	nur
8ee	ge-
=12	=12
8.ff	-fan-
16ee	-gen
8dd	ʒu
=13	=13
8.ee	lie-
16dd	-ben
8cc	recht
=14	=14
4gg}	an,
{8gg	ſo
=15	=15
8.ff	war
16dd	er
8b	ein
=16	=16
8.ee	ar-
16dd	-mer
8cc	ge-
=17	=17
8dd	-ſchla-
8g	-ge-
8b/	-ner
=18	=18
4cc}	Mann.
==	==
!!!AGN: Romanze
!!!ONB: ESAC (Essen Associative Code) Database: ZUCCAL
!!!AMT: simple triple
!!!AIN: vox
!!!EED: Helmut Schaffrath
!!!EEV: 1.0
!!!GTL: III. Soldaten-, Jaeger-, Schiffer-, Fuhrmanns- und Handwerks-Lieder.
!!!URL-scan: https://www.digitale-sammlungen.de/de/view/bsb11160571?page=439
!!!ENC: Anna Maria Matuszewska
!!!EEV: 2025/01/29
*-	*-
